X:55
T:Killarney Boys of Pleasure
R:reel
M:C|
K:Edor
|:FD|~E2ED E2FA|BFAF DEFA|~B3d e2ed|(3Bcd AF DEFD|
|~E2ED E2FA|BFAF DEFA|~B3d e2ed|1 BdAF DE :|2 BdAF DEFA||
|:Be~e2 Be~e2|BdAF DEFA|~f2fe f2fe|dBAF DEFA|
|Be~e2 Be~e2| BdAF DEFA|~f2fe defe|1 dBAF DEFA:|2 dBAF DE ||
